!!!SOCIAL_FUNCTION:	songs of social dances
!!!PDT:	1958
!!!OTL: No_26_Dance_Song_from_Grindstone_Village_(a).krn
!!!REG: Northern California
!!!LANG: Non-Tone
!!!LING_GROUP: Penutian
**kern
*staff1
=1-
*clefF4
*k[f#c#g#d#]
*M3/4
32E\LLK
16.E\J
8E\J
32F#\LLK
16.F#\
16E\
16E\JJ
8E\
8r
=2
32E\LLK
16.E\
16E\
16E\JJ
32F#\LLK
16.F#\J
8E\J
16C#/LL
16C#/
16BB/JJ
16r
=3
16E\LK
8.E\J
32F#\LLK
16.F#\
16E\
16E\JJ
8E\
8r
=4
=
32E\LLK
16.E\
16E\
16E\JJ
32F#\LLK
16.F#\J
8E\J
16C#/LL
16C#/
16BB/JJ
16r
=5
*M2/4
16G#\LK
8G#\
16F#\Jk
4F#\
=6
32F#\LLK
16.F#\
16E\
16E\JJ
4E\
=7
16G#\LK
8G#\
16F#\Jk
4F#\
=8
32F#\LLK
16.F#\
16E\
16E\JJ
4E\
=9
*M3/4
32E\LLK
16.E\J
8E\J
32F#\LLK
16.F#\J
8E\J
16C#/LL
16C#/
16BB/JJ
16r
=10
32E\LLK
16.E\J
8E\J
32F#\LLK
16.F#\
16E\
16E\JJ
4E\
==:|!
*-
